img/paw.svg

<svg width="36" height="36" viewBox="0 0 36 36" fill="none" xmlns="http://www.w3.org/2000/svg">
<path d="M36 18C36 22.8079 34.1277 27.3277 30.7279 30.7279C27.329 34.1268 22.8093 35.9992 18.0022 36H18C13.1921 36 8.67151 34.1277 5.27206 30.7279C1.87234 27.3277 0 22.8079 0 18C0 13.1921 1.87234 8.67151 5.27206 5.27206C8.67151 1.87234 13.1921 0 18 0H18.0022C22.8093 0.000823978 27.329 1.87317 30.7279 5.27206C34.1277 8.67151 36 13.1921 36 18Z" fill="#FF7236"/>
<path d="M24.8031 15.5246C21.8387 17.2247 22.3435 22.1874 25.5591 22.1874C26.9459 22.1874 28.1462 21.1449 28.6806 19.812C29.9148 16.7336 27.3483 14.0644 24.8031 15.5246Z" fill="#FFFEFD"/>
<path d="M21.7585 16.1391C25.3153 16.1391 26.3803 10.0992 23.0011 9.10622C21.4616 8.65395 19.7109 9.73914 19.1486 11.7229C18.5177 13.9463 19.7589 16.1391 21.7585 16.1391Z" fill="#FFFEFD"/>
<path d="M20.8437 26.8903C20.3498 26.7537 19.4731 26.6658 18.5555 26.6531C17.5855 26.6389 16.57 26.7084 15.9129 26.8903C14.1382 27.3847 11.7235 26.1886 12.2533 23.7045C12.7434 21.408 14.5042 21.5389 14.9206 19.3625C15.3402 17.163 16.9706 16.1015 18.5555 16.1844C20.0223 16.2614 21.4499 17.3192 21.8389 19.363C22.2529 21.5409 24.0101 21.4088 24.4994 23.7045C25.0312 26.1906 22.6114 27.3802 20.8437 26.8903Z" fill="#FFFEFD"/>
<path d="M15.4986 16.1393C16.5047 16.1393 17.3687 15.555 17.8489 14.6607C19.2762 12.0014 16.932 8.32 14.2557 9.10841C10.8707 10.1041 11.9437 16.1393 15.4986 16.1393Z" fill="#FFFEFD"/>
<path d="M13.8909 20.2099C15.033 17.4156 12.3259 14.0023 9.74052 15.0763C6.62626 16.3698 7.99979 21.9487 11.424 21.9487C12.523 21.9487 13.4568 21.2722 13.8909 20.2099Z" fill="#FFFEFD"/>
<path d="M20.8437 26.8902C20.3497 26.7537 19.473 26.6657 18.5554 26.653V16.1844C20.0223 16.2614 21.4498 17.3192 21.8388 19.363C22.2528 21.5408 24.01 21.4087 24.4994 23.7045C25.0311 26.1905 22.6113 27.3801 20.8437 26.8902Z" fill="#FFFEFD"/>
</svg>

<svg width="36" height="36" fill="none" xmlns="http://www.w3.org/2000/svg"><path d="M36 18c0 4.808-1.872 9.328-5.272 12.728A17.884 17.884 0 0118.002 36H18a17.882 17.882 0 01-12.728-5.272C1.872 27.328 0 22.808 0 18S1.872 8.672 5.272 5.272C8.672 1.872 13.192 0 18 0h.002c4.807 0 9.327 1.873 12.726 5.272C34.128 8.672 36 13.192 36 18z" fill="#FF7236"/><path d="M24.803 15.525c-2.964 1.7-2.46 6.662.756 6.662 1.387 0 2.587-1.042 3.122-2.375 1.234-3.078-1.333-5.748-3.878-4.287zm-3.044.615c3.556 0 4.621-6.04 1.242-7.034-1.54-.452-3.29.633-3.852 2.617-.631 2.223.61 4.416 2.61 4.416z" fill="#FFFEFD"/><path d="M20.844 26.89c-.494-.136-1.37-.224-2.289-.237-.97-.014-1.985.055-2.642.237-1.775.495-4.19-.701-3.66-3.186.49-2.296 2.251-2.165 2.668-4.341.42-2.2 2.05-3.261 3.634-3.179 1.467.077 2.895 1.135 3.284 3.179.414 2.178 2.171 2.046 2.66 4.341.532 2.487-1.888 3.676-3.655 3.186zm-5.345-10.75c1.006 0 1.87-.585 2.35-1.48 1.427-2.659-.917-6.34-3.593-5.552-3.385.996-2.312 7.031 1.243 7.031z" fill="#FFFEFD"/><path d="M13.89 20.21c1.143-2.794-1.564-6.208-4.15-5.134C6.627 16.37 8 21.95 11.425 21.95c1.099 0 2.033-.677 2.467-1.74zm6.954 6.68c-.494-.136-1.371-.224-2.289-.237V16.184c1.467.077 2.895 1.135 3.284 3.179.414 2.178 2.171 2.046 2.66 4.341.532 2.486-1.888 3.676-3.655 3.186z" fill="#FFFEFD"/></svg>
